logo.svg

<?xml version="1.0" encoding="UTF-8" standalone="no"?>
<!-- Created with Inkscape (http://www.inkscape.org/) -->

<svg
   xmlns:dc="http://purl.org/dc/elements/1.1/"
   xmlns:cc="http://creativecommons.org/ns#"
   xmlns:rdf="http://www.w3.org/1999/02/22-rdf-syntax-ns#"
   xmlns:svg="http://www.w3.org/2000/svg"
   xmlns="http://www.w3.org/2000/svg"
   xmlns:sodipodi="http://sodipodi.sourceforge.net/DTD/sodipodi-0.dtd"
   xmlns:inkscape="http://www.inkscape.org/namespaces/inkscape"
   width="64px"
   height="64px"
   id="svg2985"
   version="1.1"
   inkscape:version="0.48.2 r9819"
   sodipodi:docname="logo.svg">
  <defs
     id="defs2987" />
  <sodipodi:namedview
     id="base"
     pagecolor="#ffffff"
     bordercolor="#666666"
     borderopacity="1.0"
     inkscape:pageopacity="0.0"
     inkscape:pageshadow="2"
     inkscape:zoom="7.7781746"
     inkscape:cx="28.427899"
     inkscape:cy="28.407253"
     inkscape:current-layer="layer1"
     showgrid="true"
     inkscape:document-units="px"
     inkscape:grid-bbox="true"
     inkscape:snap-grids="false"
     inkscape:window-width="1280"
     inkscape:window-height="738"
     inkscape:window-x="-8"
     inkscape:window-y="-8"
     inkscape:window-maximized="1">
    <inkscape:grid
       type="xygrid"
       id="grid2993"
       empspacing="4"
       visible="true"
       enabled="true"
       snapvisiblegridlinesonly="true"
       spacingx="4px"
       spacingy="4px" />
  </sodipodi:namedview>
  <metadata
     id="metadata2990">
    <rdf:RDF>
      <cc:Work
         rdf:about="">
        <dc:format>image/svg+xml</dc:format>
        <dc:type
           rdf:resource="http://purl.org/dc/dcmitype/StillImage" />
        <dc:title></dc:title>
      </cc:Work>
    </rdf:RDF>
  </metadata>
  <g
     id="layer1"
     inkscape:label="Layer 1"
     inkscape:groupmode="layer">
    <path
       sodipodi:type="arc"
       style="fill:#000000;fill-opacity:1;stroke:none"
       id="path3011"
       sodipodi:cx="32"
       sodipodi:cy="32"
       sodipodi:rx="32"
       sodipodi:ry="32"
       d="M 64,32 A 32,32 0 1 1 0,32 32,32 0 1 1 64,32 z" />
    <path
       style="fill:#ffffff;fill-opacity:1;stroke:none"
       d="M 32,64 C 24.225397,64 16.478548,58.355081 12,52 8.0836237,46.442643 5.3982529,38.281173 8,32 c 1.839713,-4.44146 6.502525,-8 12,-8 8,0 2.272727,8 2.272727,16 0,4.807402 1.752241,8.848368 7.000001,9.272727 7.006067,0.566545 7.487518,-5.28423 9.5,-7.454545 0.946962,-1.021229 3.804134,-0.977069 12.667771,0.182021 0,0 -2.806109,-1.222896 -5.049566,-1.660016 -2.053141,-0.400039 -3.440172,-0.793414 -3.800024,-1.090187 -1.694241,-1.397254 -1.621793,-4.07745 -4.954545,-4.022727 -4.214407,0.0692 -3.272728,8.409091 -7.272728,8.409091 C 26.363636,43.636364 31.999999,24 40,24 c 8,0 13.380214,2.643483 16,8 2.987015,6.107369 -0.08362,14.442643 -4,20 -4.478548,6.355081 -12.225397,12 -20,12 z"
       id="path3013"
       inkscape:connector-curvature="0"
       sodipodi:nodetypes="aaasssscsssssaaa" />
  </g>
</svg>

<?xml version="1.0" encoding="UTF-8" standalone="no"?>
<!-- Created with Inkscape (http://www.inkscape.org/) -->

<svg
   xmlns:dc="http://purl.org/dc/elements/1.1/"
   xmlns:cc="http://creativecommons.org/ns#"
   xmlns:rdf="http://www.w3.org/1999/02/22-rdf-syntax-ns#"
   xmlns:svg="http://www.w3.org/2000/svg"
   xmlns="http://www.w3.org/2000/svg"
   xmlns:sodipodi="http://sodipodi.sourceforge.net/DTD/sodipodi-0.dtd"
   xmlns:inkscape="http://www.inkscape.org/namespaces/inkscape"
   width="64px"
   height="64px"
   id="svg2985"
   version="1.1"
   inkscape:version="0.48.2 r9819"
   sodipodi:docname="logo.svg">
  <defs
     id="defs2987" />
  <sodipodi:namedview
     id="base"
     pagecolor="#ffffff"
     bordercolor="#666666"
     borderopacity="1.0"
     inkscape:pageopacity="0.0"
     inkscape:pageshadow="2"
     inkscape:zoom="5.5"
     inkscape:cx="28.779418"
     inkscape:cy="27.871753"
     inkscape:current-layer="layer1"
     showgrid="false"
     inkscape:document-units="px"
     inkscape:grid-bbox="true"
     inkscape:snap-grids="true"
     inkscape:window-width="1280"
     inkscape:window-height="738"
     inkscape:window-x="-8"
     inkscape:window-y="-8"
     inkscape:window-maximized="1">
    <inkscape:grid
       type="xygrid"
       id="grid2993"
       empspacing="4"
       visible="true"
       enabled="true"
       snapvisiblegridlinesonly="true"
       spacingx="4px"
       spacingy="4px" />
  </sodipodi:namedview>
  <metadata
     id="metadata2990">
    <rdf:RDF>
      <cc:Work
         rdf:about="">
        <dc:format>image/svg+xml</dc:format>
        <dc:type
           rdf:resource="http://purl.org/dc/dcmitype/StillImage" />
        <dc:title></dc:title>
      </cc:Work>
    </rdf:RDF>
  </metadata>
  <g
     inkscape:groupmode="layer"
     id="layer2"
     inkscape:label="ground">
    <path
       sodipodi:type="arc"
       style="fill:#d5e5ff;fill-opacity:1;stroke:none"
       id="path2996"
       sodipodi:cx="32"
       sodipodi:cy="32"
       sodipodi:rx="32"
       sodipodi:ry="32"
       d="M 64,32 A 32,32 0 1 1 0,32 32,32 0 1 1 64,32 z" />
  </g>
  <g
     inkscape:groupmode="layer"
     id="layer3"
     inkscape:label="iris" />
  <g
     id="layer1"
     inkscape:label="figure"
     inkscape:groupmode="layer">
    <path
       sodipodi:type="arc"
       style="fill:#00aad4;fill-opacity:1;stroke:none"
       id="path2986"
       sodipodi:cx="32"
       sodipodi:cy="44"
       sodipodi:rx="16"
       sodipodi:ry="16"
       d="m 48,44 a 16,16 0 1 1 -32,0 16,16 0 1 1 32,0 z"
       transform="translate(0,-4)" />
    <path
       style="fill:#004455;fill-opacity:1;stroke:none"
       d="M 32 0 C 14.326888 3.5527137e-015 -6.3297966e-017 14.326888 0 32 C 0 49.673112 14.326888 64 32 64 C 24.225397 64 16.478548 58.355081 12 52 C 8.0836237 46.442643 5.3982529 38.281173 8 32 C 9.839713 27.55854 14.502525 24 20 24 C 28 24 22.28125 32 22.28125 40 C 22.28125 44.807402 24.03349 48.856891 29.28125 49.28125 C 36.287317 49.847795 36.768768 43.982815 38.78125 41.8125 C 39.728212 40.791271 42.573863 40.84091 51.4375 42 C 51.4375 42 48.649707 40.78087 46.40625 40.34375 C 44.353109 39.943711 42.953602 39.546773 42.59375 39.25 C 40.899509 37.852746 40.957752 35.164027 37.625 35.21875 C 33.410593 35.28795 34.375 43.625 30.375 43.625 C 26.375 43.625 31.999999 24 40 24 C 48 24 53.380214 26.643483 56 32 C 58.987015 38.107369 55.91638 46.442643 52 52 C 47.521452 58.355081 39.774603 64 32 64 C 49.673112 64 64 49.673112 64 32 C 64 14.326888 49.673112 -7.1687253e-015 32 0 z "
       id="path3011" />
  </g>
</svg>
